iGOT/client-assets/assets/common/error-pages/empty_search.svg

<?xml version="1.0" encoding="UTF-8"?>
<svg width="151px" height="207px" viewBox="0 0 151 207" version="1.1" xmlns="http://www.w3.org/2000/svg" xmlns:xlink="http://www.w3.org/1999/xlink">
    <title>empty_search</title>
    <g id="Screens" stroke="none" stroke-width="1" fill="none" fill-rule="evenodd">
        <g id="Events-Copy" transform="translate(-844.000000, -201.000000)">
            <g id="Group-3" transform="translate(810.000000, 201.000000)">
                <g id="empty_search" transform="translate(34.500000, 0.000000)">
                    <g id="Group" transform="translate(0.000000, 68.903117)">
                        <polygon id="Path-3" fill="#E0E0E0" points="45.8499432 65.9739939 45.8499432 137.891894 150 94.5268396 150 23.8263115"></polygon>
                        <polygon id="Path-3" fill="#908E8E" points="52.0750284 69.9792539 52.0750284 128.529644 144.272032 89.7896397 144.272032 31.5154849"></polygon>
                        <polygon id="Path-4-Copy" fill="#E8F5FD" points="0 42.1476824 45.8499432 65.9739939 150 23.8263115 104.150057 0"></polygon>
                        <polygon id="Path-5" fill="#CBCBCB" points="0 42.1476824 45.8499432 65.9739939 45.8499432 138.096883 0 114.065582"></polygon>
                        <polygon id="Path-6" fill="#C6C6C6" points="144.272032 89.7896397 106.698672 71.2905445 52.0750284 94.7498455 52.0750284 128.529644"></polygon>
                        <polygon id="Path-4" fill="#A4A4A4" points="106.698672 71.2905445 106.698672 47.2971626 144.272032 31.5154849 144.272032 90.1222826"></polygon>
                        <polygon id="Path-4-Copy-2" fill="#A4A4A4" points="57.6198595 91.8970842 57.6198595 68.0340569 94.9616502 52.1220246 95.1932194 110.728822"></polygon>
                        <polygon id="Path-7" fill="#E0E0E0" points="94.9616502 52.1220246 94.9616502 111.131543 101.098831 108.138334 101.098831 49.5501752"></polygon>
                    </g>
                    <g id="Group-Copy">
                        <polygon id="Path-3" fill="#E0E0E0" points="45.8499432 65.9739939 45.8499432 137.891894 150 94.5268396 150 23.8263115"></polygon>
                        <polygon id="Path-3" fill="#908E8E" points="52.0750284 69.9792539 52.0750284 128.529644 144.272032 89.7896397 144.272032 31.5154849"></polygon>
                        <polygon id="Path-4-Copy" fill="#EBEBEB" points="0 42.1476824 45.8499432 65.9739939 150 23.8263115 104.150057 0"></polygon>
                        <polygon id="Path-5" fill="#CBCBCB" points="0 42.1476824 45.8499432 65.9739939 45.8499432 138.096883 0 114.065582"></polygon>
                        <polygon id="Path-6" fill="#C6C6C6" points="144.272032 89.7896397 106.698672 71.2905445 52.0750284 94.7498455 52.0750284 128.529644"></polygon>
                        <polygon id="Path-4" fill="#A4A4A4" points="106.698672 71.2905445 106.698672 47.2971626 144.272032 31.5154849 144.272032 90.1222826"></polygon>
                        <polygon id="Path-4-Copy-2" fill="#A4A4A4" points="57.6198595 91.8970842 57.6198595 68.0340569 94.9616502 52.1220246 95.1932194 110.728822"></polygon>
                        <polygon id="Path-7" fill="#E0E0E0" points="94.9616502 52.1220246 94.9616502 111.131543 101.098831 108.138334 101.098831 49.5501752"></polygon>
                    </g>
                    <path d="M108.935666,146.090616 L138.448971,163.223982 L130.346574,167.066216 L102.539058,151.765825 L108.935666,151.228561 L108.935666,146.090616 Z M131.787149,163.032412 C131.073847,163.032412 130.495601,163.32072 130.495601,163.676367 C130.495601,164.032013 131.073847,164.320321 131.787149,164.320321 C132.500451,164.320321 133.078697,164.032013 133.078697,163.676367 C133.078697,163.32072 132.500451,163.032412 131.787149,163.032412 Z" id="Combined-Shape" fill="#EFEFEF"></path>
                    <path d="M131.723012,163.536897 C132.166847,162.899944 132.640944,162.625992 133.109566,162.852047 L133.732926,163.210597 L133.891594,163.307021 C134.549879,163.722994 134.914581,164.095113 134.893404,164.559784 C134.889833,164.638146 134.873517,164.715262 134.844568,164.789789 C134.667316,165.246111 134.288963,165.721304 133.713432,166.225534 C133.579466,166.342902 133.375451,166.329754 133.257751,166.196166 C133.140051,166.062578 133.153237,165.859138 133.287202,165.741769 C133.791476,165.299969 134.108564,164.901723 134.24239,164.557197 L134.248296,164.53055 C134.254441,164.395708 134.004615,164.140802 133.545932,163.850958 L133.100693,163.587468 L132.853552,163.445474 C132.738366,163.376044 132.552303,163.475292 132.253332,163.904349 C132.151576,164.05038 131.95037,164.086504 131.803927,163.985035 C131.657483,163.883566 131.621256,163.682928 131.723012,163.536897 Z" id="Path-9" fill="#A4A4A4" fill-rule="nonzero"></path>
                    <path d="M133.305888,165.441978 C133.483627,165.45639 133.615997,165.611753 133.601544,165.788991 L133.524352,166.787389 L133.49114,167.258097 L133.435238,168.141342 L133.402321,168.751937 L133.384573,169.133869 L133.358928,169.836344 L133.35093,170.156411 L133.344336,170.733013 L133.347422,171.108935 L133.357204,171.435511 L133.373516,171.711936 L133.396189,171.937407 L133.414755,172.059015 C133.438003,172.18738 133.466768,172.268291 133.500697,172.300048 C133.600236,172.393215 133.813198,172.450583 134.137885,172.474874 L134.34609,172.485502 C134.383021,172.486619 134.421066,172.487411 134.460223,172.48788 L134.708496,172.486846 L134.983379,172.478201 L135.284791,172.462075 L135.612649,172.4386 L135.966873,172.407905 L136.547464,172.348614 L136.967244,172.300445 L137.645788,172.215554 C139.624412,171.957391 140.615978,172.323074 141.151918,173.760018 C141.356983,174.30983 141.246326,174.785617 140.8786,175.363423 L140.71264,175.609081 L140.505818,175.89322 C139.943534,176.663612 139.782443,177.071538 139.935833,177.642946 C140.153924,178.455383 140.900015,178.854914 142.383749,179.021514 L142.713059,179.053714 C142.769851,179.058509 142.827603,179.063022 142.886325,179.067264 L143.250365,179.089506 L143.638133,179.105601 C143.771394,179.109986 143.908686,179.113411 144.050086,179.115944 L144.486682,179.120926 C144.561527,179.121332 144.637419,179.12153 144.714365,179.12153 C146.17144,179.12153 147.872457,180.001457 149.835356,181.740944 C149.968652,181.859068 149.98068,182.06258 149.862222,182.1955 C149.743764,182.32842 149.539678,182.340414 149.406382,182.22229 C147.550489,180.577631 145.980503,179.765485 144.714365,179.765485 L144.269476,179.763299 L143.846305,179.756431 L143.444463,179.744411 L143.063557,179.726771 C143.001796,179.723336 142.940891,179.719648 142.880834,179.715697 L142.530603,179.688749 L142.200332,179.65501 C140.491425,179.456129 139.617525,178.947525 139.312022,177.80946 C139.1051,177.038632 139.292055,176.493277 139.876439,175.663726 L140.233755,175.168074 L140.261706,175.127018 C140.589195,174.646277 140.677348,174.334916 140.546651,173.984496 C140.150586,172.922581 139.489803,172.64836 137.897628,172.833309 L137.036313,172.941685 L136.407084,173.014431 C136.340622,173.021655 136.275293,173.028586 136.21108,173.035219 L135.839055,173.071401 L135.492974,173.10017 C135.43741,173.104332 135.382891,173.108174 135.329401,173.11169 L135.020665,173.128836 C133.982317,173.174855 133.382211,173.072334 133.058742,172.769572 C132.981892,172.697641 132.91785,172.577053 132.866149,172.405572 L132.82968,172.267384 L132.797796,172.109902 L132.770452,171.932915 L132.747605,171.736214 L132.729211,171.51959 L132.715226,171.282832 L132.705607,171.025731 L132.700309,170.748077 L132.699289,170.449661 L132.702503,170.130273 L132.715168,169.61141 L132.737113,169.04418 L132.756827,168.638807 L132.808255,167.76179 L132.875395,166.795014 L132.957895,165.736801 C132.972348,165.559563 133.12815,165.427566 133.305888,165.441978 Z" id="Path-10" fill="#A4A4A4" fill-rule="nonzero"></path>
                </g>
            </g>
        </g>
    </g>
</svg>

<svg width="151" height="207" xmlns="http://www.w3.org/2000/svg"><g id="Screens" stroke="none" stroke-width="1" fill="none" fill-rule="evenodd"><g id="Events-Copy" transform="translate(-844 -201)"><g id="Group-3" transform="translate(810 201)"><g id="empty_search" transform="translate(34.5)"><g id="Group" transform="translate(0 68.903)"><path id="Path-3" fill="#E0E0E0" d="M45.85 65.974v71.918L150 94.527v-70.7z"/><path id="Path-3" fill="#908E8E" d="M52.075 69.98v58.55l92.197-38.74V31.515z"/><path id="Path-4-Copy" fill="#E8F5FD" d="M0 42.148l45.85 23.826L150 23.826 104.15 0z"/><path id="Path-5" fill="#CBCBCB" d="M0 42.148l45.85 23.826v72.123L0 114.066z"/><path id="Path-6" fill="#C6C6C6" d="M144.272 89.79l-37.573-18.5-54.624 23.46v33.78z"/><path id="Path-4" fill="#A4A4A4" d="M106.699 71.29V47.298l37.573-15.782v58.607z"/><path id="Path-4-Copy-2" fill="#A4A4A4" d="M57.62 91.897V68.034l37.342-15.912.231 58.607z"/><path id="Path-7" fill="#E0E0E0" d="M94.962 52.122v59.01l6.137-2.994V49.55z"/></g><g id="Group-Copy"><path id="Path-3" fill="#E0E0E0" d="M45.85 65.974v71.918L150 94.527v-70.7z"/><path id="Path-3" fill="#908E8E" d="M52.075 69.98v58.55l92.197-38.74V31.515z"/><path id="Path-4-Copy" fill="#EBEBEB" d="M0 42.148l45.85 23.826L150 23.826 104.15 0z"/><path id="Path-5" fill="#CBCBCB" d="M0 42.148l45.85 23.826v72.123L0 114.066z"/><path id="Path-6" fill="#C6C6C6" d="M144.272 89.79l-37.573-18.5-54.624 23.46v33.78z"/><path id="Path-4" fill="#A4A4A4" d="M106.699 71.29V47.298l37.573-15.782v58.607z"/><path id="Path-4-Copy-2" fill="#A4A4A4" d="M57.62 91.897V68.034l37.342-15.912.231 58.607z"/><path id="Path-7" fill="#E0E0E0" d="M94.962 52.122v59.01l6.137-2.994V49.55z"/></g><path d="M108.936 146.09l29.513 17.134-8.102 3.842-27.808-15.3 6.397-.537v-5.138zm22.851 16.942c-.713 0-1.291.289-1.291.644 0 .356.578.644 1.291.644s1.292-.288 1.292-.644c0-.355-.579-.644-1.292-.644z" id="Combined-Shape" fill="#EFEFEF"/><path d="M131.723 163.537c.444-.637.918-.911 1.387-.685l.623.359.159.096c.658.416 1.023.788 1.001 1.253a.724.724 0 01-.048.23c-.178.456-.556.931-1.132 1.436a.324.324 0 01-.455-.03.321.321 0 01.03-.454c.503-.442.82-.84.954-1.185l.006-.026c.006-.135-.243-.39-.702-.68l-.445-.264-.247-.142c-.116-.069-.302.03-.6.46a.323.323 0 01-.45.08.321.321 0 01-.081-.448z" id="Path-9" fill="#A4A4A4" fill-rule="nonzero"/><path d="M133.306 165.442c.178.014.31.17.296.347l-.078.998-.033.471-.056.883-.033.61-.017.383-.026.702-.008.32-.007.577.003.376.01.327.017.276.022.225.019.122c.023.128.052.21.086.241.1.093.312.15.637.175l.208.01c.037.002.075.002.114.003l.248-.001.275-.009.302-.016.328-.023.354-.031.58-.06.42-.048.679-.084c1.978-.259 2.97.107 3.506 1.544.205.55.094 1.026-.273 1.603l-.166.246-.207.284c-.562.77-.724 1.179-.57 1.75.218.812.964 1.212 2.448 1.379l.33.032.172.013.364.023.388.016.412.01.437.005h.227c1.457 0 3.158.88 5.121 2.62a.321.321 0 01.027.454.324.324 0 01-.456.027c-1.856-1.644-3.425-2.457-4.692-2.457l-.445-.002-.423-.007-.402-.012-.38-.017a18.07 18.07 0 01-.183-.011l-.35-.027-.33-.034c-1.71-.199-2.583-.707-2.889-1.846-.207-.77-.02-1.316.564-2.145l.358-.496.028-.041c.327-.48.415-.792.285-1.143-.396-1.061-1.057-1.336-2.65-1.15l-.86.108-.63.072-.196.021-.372.036-.346.03-.164.01-.308.018c-1.039.046-1.639-.057-1.962-.36-.077-.071-.141-.192-.193-.363l-.036-.139-.032-.157-.028-.177-.022-.197-.019-.216-.014-.237-.01-.257-.005-.278v-.298l.003-.32.012-.519.022-.567.02-.405.051-.877.067-.967.083-1.058a.323.323 0 01.348-.295z" id="Path-10" fill="#A4A4A4" fill-rule="nonzero"/></g></g></g></g></svg>
